public/img/psychology/b7-2.svg

<?xml version="1.0" encoding="UTF-8"?> <svg xmlns="http://www.w3.org/2000/svg" width="125" height="144" viewBox="0 0 125 144" fill="none"> <path d="M0.5 36.2887L62.3538 0.57735L124.208 36.2887V107.711L62.3538 143.423L0.5 107.711V36.2887Z" stroke="#27B783"></path> <path d="M46.8066 87.6172C44.6866 87.6172 42.9199 85.8506 42.9199 83.7306V81.1865C42.9199 79.0665 44.6866 77.2998 46.8066 77.2998C47.2307 77.2998 47.5133 77.5824 47.5133 78.0065C47.5133 78.4305 47.2307 78.7131 46.8066 78.7131C45.464 78.7131 44.3333 79.8439 44.3333 81.1865V83.7306C44.3333 85.0731 45.464 86.2039 46.8066 86.2039C47.2307 86.2039 47.5133 86.4865 47.5133 86.9106C47.5133 87.3346 47.1599 87.6172 46.8066 87.6172Z" fill="black" stroke="#F0F0F0" stroke-width="0.4"></path> <path d="M77.1932 87.4761C76.7692 87.4761 76.4866 87.1935 76.4866 86.7694C76.4866 86.3454 76.7692 86.0628 77.1932 86.0628C78.5358 86.0628 79.6666 84.932 79.6666 83.5894V81.0454C79.6666 79.7028 78.5358 78.572 77.1932 78.572C76.7692 78.572 76.4866 78.2894 76.4866 77.8654C76.4866 77.4413 76.7692 77.1587 77.1932 77.1587C79.3132 77.1587 81.0799 78.9254 81.0799 81.0454V83.5894C81.0799 85.7094 79.384 87.4761 77.1932 87.4761Z" fill="black" stroke="#F0F0F0" stroke-width="0.4"></path> <path d="M62.636 104.295H61.3641C52.9549 104.295 46.1001 97.44 46.1001 89.0308V79.0668C46.1001 76.876 46.5949 74.756 47.4427 72.7068V72.636C48.7853 69.7386 51.0468 67.2653 53.8027 65.7109C54.156 65.499 54.5801 65.6402 54.7919 65.9935C55.0038 66.3468 54.8627 66.7709 54.5093 66.9827C52.036 68.3961 49.9868 70.5868 48.7852 73.2012V73.272C47.9371 75.1094 47.5134 77.0171 47.5134 79.0668V89.1015C47.5134 96.7333 53.7319 102.952 61.3641 102.952H62.6359C70.2678 102.952 76.4866 96.7337 76.4866 89.1015V79.0668C76.4866 77.0883 76.0626 75.1094 75.2148 73.3427V73.272C74.0133 70.6571 71.964 68.3961 69.42 66.9827C69.0666 66.7709 68.9251 66.3468 69.1374 65.9935C69.3492 65.6402 69.7733 65.5694 70.1266 65.7109C72.8825 67.2657 75.144 69.6683 76.4866 72.5657V72.6365C77.4051 74.6857 77.8999 76.8057 77.8999 78.9965V89.0311C77.8999 97.44 71.0451 104.295 62.6359 104.295L62.636 104.295Z" fill="black" stroke="#F0F0F0" stroke-width="0.4"></path> <path d="M69.5613 82.953C66.7347 82.953 64.4731 80.6915 64.4731 77.8649C64.4731 77.4408 64.7557 77.1582 65.1798 77.1582C65.6039 77.1582 65.8865 77.4408 65.8865 77.8649C65.8865 79.9141 67.5116 81.5397 69.5613 81.5397C71.6106 81.5397 73.2362 79.9146 73.2362 77.8649C73.2362 77.4408 73.5188 77.1582 73.9429 77.1582C74.3669 77.1582 74.6495 77.4408 74.6495 77.8649C74.5785 80.6915 72.3173 82.953 69.5613 82.953Z" fill="black" stroke="#F0F0F0" stroke-width="0.4"></path> <path d="M66.3106 92.988H57.6891C57.265 92.988 56.9824 92.7054 56.9824 92.2814C56.9824 91.8573 57.265 91.5747 57.6891 91.5747H66.3809C66.8049 91.5747 67.0875 91.8573 67.0875 92.2814C67.0879 92.7051 66.7345 92.988 66.3105 92.988H66.3106Z" fill="black" stroke="#F0F0F0" stroke-width="0.4"></path> <path d="M54.4385 82.953C51.6118 82.953 49.3503 80.6915 49.3503 77.8649C49.3503 77.4408 49.6329 77.1582 50.057 77.1582C50.4811 77.1582 50.7637 77.4408 50.7637 77.8649C50.7637 79.9141 52.3888 81.5397 54.4385 81.5397C56.4878 81.5397 58.1133 79.9146 58.1133 77.8649C58.1133 77.4408 58.3959 77.1582 58.82 77.1582C59.2441 77.1582 59.5267 77.4408 59.5267 77.8649C59.5267 80.6915 57.2652 82.953 54.4385 82.953Z" fill="black" stroke="#F0F0F0" stroke-width="0.4"></path> <path d="M61.9998 87.5464H58.325C58.1131 87.5464 57.9009 87.4049 57.7598 87.2638C57.6183 87.0519 57.6183 86.8397 57.689 86.6279L61.3639 77.6532C61.5053 77.2999 61.9291 77.088 62.2824 77.2999C62.6357 77.4413 62.8475 77.865 62.6357 78.2183L59.3849 86.1332H61.9998C62.4238 86.1332 62.7064 86.4158 62.7064 86.8399C62.7064 87.2639 62.4238 87.5465 61.9998 87.5465L61.9998 87.5464Z" fill="black" stroke="#F0F0F0" stroke-width="0.4"></path> <path d="M58.1839 69.3853C55.2157 69.3853 52.7424 66.8412 52.7424 63.8027V63.3786C50.6932 61.8945 49.4209 59.492 49.4209 56.8771C49.4209 55.393 49.845 53.9797 50.5517 52.7786C49.845 51.8601 49.4209 50.7294 49.4209 49.5986C49.4209 46.9135 51.6824 44.5812 54.6501 44.0868C55.1449 41.5427 57.1235 39.7053 59.5261 39.7053C59.8086 39.7053 60.8686 39.6346 61.7168 40.412C62.3527 40.9771 62.6353 41.7545 62.6353 42.8145V67.2652C62.6353 67.5478 62.4938 67.76 62.2112 67.9011L59.5263 69.1733C59.4556 69.1733 59.4556 69.244 59.3849 69.244C58.9611 69.3148 58.6078 69.3852 58.1837 69.3852L58.1839 69.3853ZM59.7384 41.1186H59.6677C57.7595 41.1186 56.2758 42.6734 56.0636 44.7935C56.0636 45.1468 55.781 45.4294 55.4277 45.4294C52.8836 45.6412 50.9051 47.4079 50.9051 49.5986C50.9051 50.5879 51.3291 51.5068 52.0358 52.2135C52.2477 52.4253 52.3184 52.8494 52.1066 53.132C51.3292 54.2627 50.9051 55.5345 50.9051 56.8771C50.9051 59.1386 52.0358 61.1879 53.9435 62.3889C54.1554 62.5304 54.2969 62.813 54.2261 63.0956C54.2261 63.3075 54.1554 63.5197 54.1554 63.7315C54.1554 66.3464 56.4169 68.3956 58.9606 67.83L61.2221 66.77V42.7434C61.2221 42.1074 61.0806 41.6834 60.798 41.4008C60.5157 41.1185 59.9505 41.1185 59.7383 41.1185L59.7384 41.1186Z" fill="black" stroke="#F0F0F0" stroke-width="0.4"></path> <path d="M53.6614 54.3335C52.4599 54.3335 51.4707 53.6976 50.9763 53.2028C50.6937 52.9202 50.7644 52.4961 51.047 52.2136C51.3296 51.931 51.7537 52.0017 52.0362 52.2843C52.1777 52.4258 53.5911 53.8391 55.5696 52.2136C55.8521 52.0017 56.347 52.0017 56.5588 52.2843C56.7707 52.5669 56.7707 53.0617 56.4881 53.2735C55.4281 54.0509 54.5092 54.3335 53.6614 54.3335V54.3335Z" fill="black" stroke="#F0F0F0" stroke-width="0.4"></path> <path d="M65.8158 69.3852C65.3918 69.3852 65.0384 69.3145 64.6143 69.2437C64.5436 69.2437 64.5436 69.2437 64.4729 69.173L61.7169 67.9012C61.4347 67.76 61.2932 67.5482 61.2932 67.2652V42.8145C61.2932 41.7545 61.5758 40.9771 62.2117 40.412C63.0598 39.6346 64.1902 39.7053 64.4025 39.7053C66.7343 39.7053 68.784 41.5427 69.2784 44.0868C72.2465 44.5109 74.5076 46.8427 74.5076 49.5986C74.5076 50.7294 74.0835 51.8601 73.3769 52.7786C74.1543 54.0505 74.5076 55.4638 74.5076 56.8771C74.5076 59.4212 73.3061 61.8238 71.1861 63.3786V63.8027C71.1864 66.8412 68.7839 69.3849 65.8157 69.3849L65.8158 69.3852ZM64.968 67.8307C67.5121 68.3959 69.7732 66.3466 69.7732 63.7322C69.7732 63.5203 69.7732 63.3081 69.7025 63.0963C69.6317 62.8137 69.7732 62.5311 69.9851 62.3896C71.8932 61.1881 73.0235 59.0681 73.0235 56.8778C73.0235 55.5352 72.5995 54.1926 71.822 53.1326C71.6102 52.85 71.6806 52.4967 71.8928 52.2141C72.5994 51.4367 73.0235 50.5182 73.0235 49.5993C73.0235 47.4793 71.045 45.6419 68.5009 45.43C68.1476 45.43 67.865 45.1474 67.865 44.7941C67.6532 42.6741 66.0984 41.1193 64.3317 41.1193H64.261C64.261 41.1193 63.5543 41.0485 63.0594 41.4726C62.7768 41.7552 62.6354 42.1793 62.6354 42.8152V66.8419L64.968 67.8307Z" fill="black" stroke="#F0F0F0" stroke-width="0.4"></path> <path d="M67.8653 64.5094C67.0172 64.5094 66.0279 64.2975 65.1094 63.5909C64.8268 63.379 64.6854 62.9549 64.9679 62.6016C65.1798 62.319 65.6039 62.1775 65.9572 62.4601C67.9357 63.8735 69.9854 62.5309 70.0557 62.4601C70.409 62.2483 70.8331 62.3187 71.0449 62.672C71.2568 63.0253 71.1864 63.4494 70.8331 63.6612C70.7627 63.6616 69.4908 64.5094 67.8652 64.5094L67.8653 64.5094Z" fill="black" stroke="#F0F0F0" stroke-width="0.4"></path> <path d="M68.6427 53.9801H68.5012C68.3597 53.9801 64.9679 53.4149 64.332 50.0226C64.2612 49.6693 64.5438 49.2452 64.8972 49.1745C65.2505 49.1038 65.6746 49.3864 65.7453 49.7397C66.1694 52.1423 68.7135 52.5663 68.7135 52.5663C69.0668 52.6371 69.3494 52.9904 69.2787 53.3438C69.2787 53.6974 68.9961 53.98 68.6427 53.98L68.6427 53.9801Z" fill="black" stroke="#F0F0F0" stroke-width="0.4"></path> </svg>

<svg xmlns="http://www.w3.org/2000/svg" width="125" height="144" fill="none"><path d="M.5 36.289L62.354.577l61.854 35.712v71.422l-61.854 35.712L.5 107.711V36.289z" stroke="#27B783"/><path d="M46.807 87.617c-2.12 0-3.887-1.766-3.887-3.886v-2.544c0-2.12 1.767-3.887 3.887-3.887.424 0 .706.282.706.707 0 .423-.282.706-.706.706-1.343 0-2.474 1.13-2.474 2.474v2.544c0 1.342 1.131 2.473 2.474 2.473.424 0 .706.283.706.707a.708.708 0 01-.706.706zm30.386-.141c-.424 0-.706-.282-.706-.707 0-.424.282-.706.706-.706 1.343 0 2.474-1.131 2.474-2.474v-2.544c0-1.342-1.131-2.473-2.474-2.473-.424 0-.706-.283-.706-.707s.282-.706.706-.706c2.12 0 3.887 1.766 3.887 3.886v2.544a3.875 3.875 0 01-3.887 3.887z" fill="#000" stroke="#F0F0F0" stroke-width=".4"/><path d="M62.636 104.295h-1.272c-8.41 0-15.264-6.855-15.264-15.264v-9.964c0-2.191.495-4.311 1.343-6.36v-.071c1.342-2.897 3.604-5.37 6.36-6.925.353-.212.777-.07.989.282.212.354.07.778-.283.99-2.473 1.413-4.522 3.604-5.724 6.218v.071a13.59 13.59 0 00-1.272 5.795v10.035c0 7.631 6.219 13.85 13.851 13.85h1.272c7.632 0 13.85-6.218 13.85-13.85V79.067c0-1.979-.423-3.958-1.271-5.724v-.071c-1.202-2.615-3.251-4.876-5.795-6.29-.353-.211-.495-.635-.283-.989.212-.353.636-.424.99-.282 2.755 1.555 5.017 3.957 6.36 6.855v.07c.918 2.05 1.413 4.17 1.413 6.36v10.035c0 8.409-6.855 15.264-15.264 15.264h0z" fill="#000" stroke="#F0F0F0" stroke-width=".4"/><path d="M69.561 82.953a5.067 5.067 0 01-5.088-5.088c0-.424.283-.707.707-.707s.706.283.706.707a3.65 3.65 0 003.675 3.675 3.65 3.65 0 003.675-3.675c0-.424.283-.707.707-.707s.707.283.707.707c-.072 2.827-2.333 5.088-5.089 5.088zM66.31 92.988h-8.62c-.425 0-.708-.283-.708-.707s.283-.706.707-.706h8.692c.424 0 .707.282.707.706s-.353.707-.777.707h0zM54.438 82.953a5.067 5.067 0 01-5.088-5.088c0-.424.283-.707.707-.707s.707.283.707.707a3.65 3.65 0 003.674 3.675 3.65 3.65 0 003.675-3.675c0-.424.283-.707.707-.707s.707.283.707.707a5.067 5.067 0 01-5.089 5.088zM62 87.546h-3.675c-.212 0-.424-.141-.565-.282-.142-.212-.142-.424-.071-.636l3.675-8.975c.141-.353.565-.565.918-.353.354.141.566.565.354.918l-3.251 7.915H62c.424 0 .706.283.706.707s-.282.706-.706.706h0zm-3.816-18.161c-2.968 0-5.442-2.544-5.442-5.582v-.424a8.033 8.033 0 01-3.321-6.502 8.11 8.11 0 011.13-4.098c-.706-.919-1.13-2.05-1.13-3.18 0-2.685 2.261-5.018 5.23-5.512.494-2.544 2.472-4.382 4.875-4.382.283 0 1.343-.07 2.19.707.637.565.92 1.343.92 2.403v24.45c0 .283-.142.495-.425.636l-2.685 1.272c-.07 0-.07.071-.141.071-.424.07-.777.141-1.201.141h0zm1.554-28.266h-.07c-1.908 0-3.392 1.554-3.604 3.675a.633.633 0 01-.636.635c-2.544.212-4.523 1.979-4.523 4.17 0 .989.424 1.908 1.13 2.615.213.211.283.635.072.918-.778 1.13-1.202 2.403-1.202 3.745 0 2.262 1.13 4.31 3.038 5.512a.672.672 0 01.283.707c0 .212-.07.424-.07.636 0 2.614 2.26 4.664 4.805 4.098l2.261-1.06V42.743c0-.636-.141-1.06-.424-1.342-.282-.283-.848-.283-1.06-.283h0z" fill="#000" stroke="#F0F0F0" stroke-width=".4"/><path d="M53.661 54.334c-1.201 0-2.19-.636-2.685-1.131-.282-.283-.212-.707.071-.99.283-.282.707-.211.99.071.14.142 1.554 1.555 3.533-.07.282-.212.777-.212.989.07.212.283.212.778-.07.99-1.06.777-1.98 1.06-2.828 1.06v0zm12.155 15.051c-.424 0-.778-.07-1.202-.141-.07 0-.07 0-.141-.071l-2.756-1.272c-.282-.141-.424-.353-.424-.636v-24.45c0-1.06.283-1.838.919-2.403.848-.777 1.978-.707 2.19-.707 2.332 0 4.382 1.838 4.876 4.382 2.968.424 5.23 2.756 5.23 5.512 0 1.13-.424 2.261-1.131 3.18.777 1.271 1.13 2.685 1.13 4.098 0 2.544-1.2 4.947-3.32 6.502v.424c0 3.038-2.403 5.582-5.371 5.582h0zm-.848-1.554c2.544.565 4.805-1.484 4.805-4.099 0-.212 0-.424-.07-.636a.672.672 0 01.282-.706 6.549 6.549 0 003.038-5.512c0-1.343-.423-2.685-1.201-3.745-.212-.283-.141-.636.07-.919.707-.777 1.132-1.696 1.132-2.615 0-2.12-1.979-3.957-4.523-4.169a.633.633 0 01-.636-.636c-.212-2.12-1.767-3.675-3.533-3.675h-.071s-.707-.07-1.202.354c-.282.282-.424.706-.424 1.342v24.027l2.333.989z" fill="#000" stroke="#F0F0F0" stroke-width=".4"/><path d="M67.865 64.51c-.848 0-1.837-.213-2.756-.92-.282-.211-.424-.635-.141-.988.212-.283.636-.424.99-.142 1.978 1.413 4.027.07 4.098 0 .353-.212.777-.141.989.212.212.353.141.777-.212.99-.07 0-1.342.847-2.968.847h0zm.778-10.53H68.5c-.141 0-3.533-.565-4.169-3.957-.07-.354.212-.778.565-.849.353-.07.778.212.848.566.424 2.402 2.968 2.826 2.968 2.826.354.071.636.424.566.778a.633.633 0 01-.636.636h0z" fill="#000" stroke="#F0F0F0" stroke-width=".4"/></svg>
